Origami/64x64/apps/weather.svg

<svg width="64" height="64" version="1" xmlns="http://www.w3.org/2000/svg">
 <path d="m42 4-6 6h-8v2h8l6-6 6 6h8v-2h-8zm-14 14-6 6 1 1 5-5zm28 0v2l5 5 1-1z" style="fill:#ffffff;opacity:.2"/>
 <path d="m58 37.106594c0 7.48743-2.938888 14.288444-7.726052 19.31243-5.099884 5.352176-13.577892 0.0086-21.554436 0.0086-8.098894 0-14.114196 5.24036-19.226653-0.256418-4.6492326-4.998618-7.4928586-11.699534-7.4928586-19.064612 0-15.463972 12.536027-28.000002 28-28.000002 15.463974 0 28 12.53603 28 28.000002z" style="fill:#0d0d08;opacity:.2"/>
 <path d="m58 36.106594c0 7.48743-2.938888 14.288444-7.726052 19.31243-5.099884 5.352176-13.577892 0.0086-21.554436 0.0086-8.098894 0-14.114196 5.24036-19.226653-0.256418-4.6492326-4.998618-7.4928586-11.699534-7.4928586-19.064612 0-15.463972 12.536027-28.000001 28-28.000001 15.463974 0 28 12.536029 28 28.000001z" style="fill:#0091cf"/>
 <path d="m30 8.1054688c-15.463973 0-28 12.536028-28 28 0 0.114603 0.011419 0.226655 0.0175781 0.339843 0.3517716-15.158087 12.73978-27.339843 27.982422-27.339843 15.242643-1e-7 27.63065 12.181756 27.982422 27.339843 0.006254-0.113144 0.017578-0.225145 0.017578-0.339843 0-15.463972-12.536026-28-28-28z" style="fill:#ffffff;opacity:.1"/>
 <path d="m42 4.9999994-6 5.9999996h-8v8l-6 6.000001 6 6v8h8l6 6 6-6h8v-8l6-6-6-6.000001v-8h-8z" style="fill:#0d0d08;opacity:.2"/>
 <path d="m42 4-6 6h-8v8l-6 6 6 6v8h8l6 6 6-6h8v-8l6-6-6-6v-8h-8z" style="fill:#ff8a47"/>
 <circle cx="42" cy="25" r="12" style="fill:#0d0d08;opacity:.2"/>
 <circle cx="42" cy="24" r="12" style="fill:#ffcc42"/>
 <circle cx="30.571" cy="44.286" r="11.429" style="opacity:.2"/>
 <path d="M 30,31 A 12,12 0 0 0 18,43 12,12 0 0 0 18.017578,43.533203 9,9 0 0 0 15,43 9,9 0 0 0 6,52 9,9 0 0 0 15,61 H 45 A 9,9 0 0 0 54,52 9,9 0 0 0 45,43 9,9 0 0 0 41.972656,43.533203 12,12 0 0 0 42,43 12,12 0 0 0 30,31 Z" style="opacity:.2"/>
 <circle cx="15" cy="51" r="9" style="fill:#ffffff"/>
 <circle cx="30" cy="42" r="12" style="fill:#ffffff"/>
 <circle cx="45" cy="51" r="9" style="fill:#ffffff"/>
 <rect x="15" y="48" width="30" height="12" style="fill:#ffffff"/>
 <path d="M 42 12 A 12 12 0 0 0 30 24 A 12 12 0 0 0 30.021484 24.404297 A 12 12 0 0 1 42 13 A 12 12 0 0 1 53.974609 24.5 A 12 12 0 0 0 54 24 A 12 12 0 0 0 42 12 z" style="fill:#ffffff;opacity:.2"/>
 <path d="m42 4l-6 6h-8v1h8l6-6 6 6h8v-1h-8l-6-6zm-14 14l-6 6 0.5 0.5 5.5-5.5v-1zm28 0v1l5.5 5.5 0.5-0.5-6-6z" style="fill:#ffffff;opacity:.2"/>
</svg>

<svg xmlns="http://www.w3.org/2000/svg" width="64" height="64" version="1">
 <path style="opacity:0.2;fill:#ffffff" d="m 42,4 -6,6 h -8 v 2 h 8 l 6,-6 6,6 h 8 v -2 h -8 z m -14,14 -6,6 1,1 5,-5 z m 28,0 v 2 l 5,5 1,-1 z"/>
 <path d="m 58,37.106594 c 0,7.48743 -2.938888,14.288444 -7.726052,19.31243 -5.099884,5.352176 -13.577892,0.0086 -21.554436,0.0086 -8.098894,0 -14.114196,5.24036 -19.2266534,-0.256418 C 4.843626,51.172588 2,44.471672 2,37.106594 2,21.642622 14.536027,9.106592 30,9.106592 c 15.463974,0 28,12.53603 28,28.000002 z" style="opacity:0.2;fill:#0d0d08"/>
 <path style="fill:#0091cf" d="m 58,36.106594 c 0,7.48743 -2.938888,14.288444 -7.726052,19.31243 -5.099884,5.352176 -13.577892,0.0086 -21.554436,0.0086 -8.098894,0 -14.114196,5.24036 -19.2266534,-0.256418 C 4.843626,50.172588 2,43.471672 2,36.106594 2,20.642622 14.536027,8.106593 30,8.106593 c 15.463974,0 28,12.536029 28,28.000001 z"/>
 <path style="opacity:0.1;fill:#ffffff" d="M 30 8.1054688 C 14.536027 8.1054688 2 20.641497 2 36.105469 C 2 36.220072 2.011419 36.332124 2.0175781 36.445312 C 2.3693497 21.287225 14.757358 9.1054688 30 9.1054688 C 45.242643 9.1054687 57.63065 21.287225 57.982422 36.445312 C 57.988676 36.332168 58 36.220167 58 36.105469 C 58 20.641497 45.463974 8.1054687 30 8.1054688 z"/>
 <path d="m 42,4.9999994 -6,5.9999996 h -8 v 8 L 22,25 l 6,6 v 8 h 8 l 6,6 6,-6 h 8 v -8 l 6,-6 -6,-6.000001 v -8 h -8 z" style="opacity:0.2;fill:#0d0d08"/>
 <path style="fill:#ff8a47" d="m 42,4 -6,6 h -8 v 8 l -6,6 6,6 v 8 h 8 l 6,6 6,-6 h 8 v -8 l 6,-6 -6,-6 v -8 h -8 z"/>
 <circle cx="42" cy="25" r="12" style="opacity:0.2;fill:#0d0d08"/>
 <circle style="fill:#ffcc42" cx="42" cy="24" r="12"/>
 <circle style="opacity:0.2" cx="30.571" cy="44.286" r="11.429"/>
 <path style="opacity:0.2" d="M 30,31 A 12,12 0 0 0 18,43 12,12 0 0 0 18.017578,43.533203 9,9 0 0 0 15,43 9,9 0 0 0 6,52 9,9 0 0 0 15,61 H 45 A 9,9 0 0 0 54,52 9,9 0 0 0 45,43 9,9 0 0 0 41.972656,43.533203 12,12 0 0 0 42,43 12,12 0 0 0 30,31 Z"/>
 <circle style="fill:#ffffff" cx="15" cy="51" r="9"/>
 <circle cx="30" cy="42" r="12" style="fill:#ffffff"/>
 <circle cx="45" cy="51" r="9" style="fill:#ffffff"/>
 <rect style="fill:#ffffff" width="30" height="12" x="15" y="48"/>
 <path style="opacity:0.2;fill:#ffffff" d="M 42 12 A 12 12 0 0 0 30 24 A 12 12 0 0 0 30.021484 24.404297 A 12 12 0 0 1 42 13 A 12 12 0 0 1 53.974609 24.5 A 12 12 0 0 0 54 24 A 12 12 0 0 0 42 12 z"/>
 <path style="opacity:0.2;fill:#ffffff" d="M 42 4 L 36 10 L 28 10 L 28 11 L 36 11 L 42 5 L 48 11 L 56 11 L 56 10 L 48 10 L 42 4 z M 28 18 L 22 24 L 22.5 24.5 L 28 19 L 28 18 z M 56 18 L 56 19 L 61.5 24.5 L 62 24 L 56 18 z"/>
</svg>
